src/standard/cactus.svg

<?xml version="1.0" encoding="UTF-8"?><svg id="a" xmlns="http://www.w3.org/2000/svg" viewBox="0 0 36 36"><title>Cactus icon - Black</title>
<desc>plant, spikes, desert, green, grow, water, dry, drought, science and nature</desc>
<metadata><?xpacket begin="﻿" id="W5M0MpCehiHzreSzNTczkc9d"?>
<x:xmpmeta xmlns:x="adobe:ns:meta/" x:xmptk="Adobe XMP Core 8.0-c001 1.000000, 0000/00/00-00:00:00        ">
   <rdf:RDF xmlns:rdf="http://www.w3.org/1999/02/22-rdf-syntax-ns#">
      <rdf:Description rdf:about=""
            xmlns:xmp="http://ns.adobe.com/xap/1.0/"
            xmlns:dc="http://purl.org/dc/elements/1.1/"
            xmlns:cq="http://www.day.com/jcr/cq/1.0"
            xmlns:tiff="http://ns.adobe.com/tiff/1.0/">
         <xmp:rhcc-effective-on>2023-12-08T17:40:59.601Z</xmp:rhcc-effective-on>
         <xmp:rhcc-metadata-complete-moderator>pending</xmp:rhcc-metadata-complete-moderator>
         <xmp:rhcc-translation-id>TRAdb1f569d-4e85-4542-8057-2bd27f247984</xmp:rhcc-translation-id>
         <xmp:brand-content-type>Icon</xmp:brand-content-type>
         <xmp:CreateDate>2023-12-08T17:40:59.601Z</xmp:CreateDate>
         <xmp:rhcc-effective-on-set-on-upload>true</xmp:rhcc-effective-on-set-on-upload>
         <xmp:rhcc-metadata-complete-uploader>pending</xmp:rhcc-metadata-complete-uploader>
         <xmp:rhcc-file-last-modified>2023-12-08T17:42:22.190Z</xmp:rhcc-file-last-modified>
         <xmp:rhcc-audience>rhcc-audience:internal</xmp:rhcc-audience>
         <xmp:rhcc-rights-restricted>no</xmp:rhcc-rights-restricted>
         <xmp:brand-content-subtype>Icon</xmp:brand-content-subtype>
         <xmp:rhcc-derivative-id>DERdb1f569d-4e85-4542-8057-2bd27f247984</xmp:rhcc-derivative-id>
         <xmp:brand-logo-color>Black</xmp:brand-logo-color>
         <xmp:rhcc-notify-portal-subscribers-on-change>yes</xmp:rhcc-notify-portal-subscribers-on-change>
         <dc:format>image/svg+xml</dc:format>
         <dc:modified>2024-02-09T20:26:13.102Z</dc:modified>
         <dc:title>
            <rdf:Alt>
               <rdf:li xml:lang="x-default">Cactus icon - Black</rdf:li>
            </rdf:Alt>
         </dc:title>
         <dc:description>
            <rdf:Alt>
               <rdf:li xml:lang="x-default">plant, spikes, desert, green, grow, water, dry, drought, science and nature</rdf:li>
            </rdf:Alt>
         </dc:description>
         <cq:lastReplicationAction_scene7>Activate</cq:lastReplicationAction_scene7>
         <cq:lastReplicationAction_publish>Activate</cq:lastReplicationAction_publish>
         <cq:lastReplicated_publish>2024-02-09T22:10:54.972Z</cq:lastReplicated_publish>
         <cq:lastReplicatedBy>workflow-process-service</cq:lastReplicatedBy>
         <cq:lastReplicationAction>Activate</cq:lastReplicationAction>
         <cq:lastReplicatedBy_publish>workflow-process-service</cq:lastReplicatedBy_publish>
         <cq:isDelivered>true</cq:isDelivered>
         <cq:lastReplicated>2024-02-09T22:10:54.972Z</cq:lastReplicated>
         <cq:lastReplicatedBy_scene7>workflow-process-service</cq:lastReplicatedBy_scene7>
         <cq:lastReplicated_scene7>2024-02-09T22:10:54.972Z</cq:lastReplicated_scene7>
         <tiff:ImageLength>36</tiff:ImageLength>
         <tiff:ImageWidth>36</tiff:ImageWidth>
      </rdf:Description>
   </rdf:RDF>
</x:xmpmeta>
                                                                                                    
                                                                                                    
                                                                                                    
                                                                                                    
                                                                                                    
                                                                                                    
                                                                                                    
                                                                                                    
                                                                                                    
                                                                                                    
                                 
<?xpacket end="w"?></metadata>
<path d="m28.6997,11.999c-.5874-.5-1.3682-.7148-2.1362-.5889-1.2476.2031-2.1885,1.3623-2.1885,2.6963v4.8936c0,.207-.1685.375-.375.375h-2.375v-11.375c0-1.999-1.626-3.625-3.625-3.625s-3.625,1.626-3.625,3.625v7.375h-2.375c-.2065,0-.375-.168-.375-.375v-3c0-1.334-.9409-2.4941-2.189-2.6973-.771-.127-1.5493.0898-2.1367.5908-.5874.499-.9243,1.2285-.9243,1.999v5.1074c0,1.999,1.626,3.625,3.625,3.625h4.375v8.375c0,.3447.2798.625.625.625s.625-.2803.625-.625v-9c0-.3447-.2798-.625-.625-.625h-5c-1.3096,0-2.375-1.0654-2.375-2.375v-5.1074c0-.4033.1768-.7852.4844-1.0479.3125-.2656.7129-.3789,1.126-.3076.6499.1055,1.1396.7344,1.1396,1.4629v3c0,.8965.729,1.625,1.625,1.625h3c.3452,0,.625-.2803.625-.625v-8c0-1.3096,1.0654-2.375,2.375-2.375s2.375,1.0654,2.375,2.375v12c0,.3447.2798.625.625.625h3c.896,0,1.625-.7285,1.625-1.625v-4.8936c0-.7275.4897-1.3564,1.1396-1.4619.4121-.0723.8125.041,1.1255.3066.3081.2627.4849.6445.4849,1.0488v7c0,1.3096-1.0654,2.375-2.375,2.375h-5c-.3452,0-.625.2803-.625.625v5c0,.3447.2798.625.625.625s.625-.2803.625-.625v-4.375h4.375c1.999,0,3.625-1.626,3.625-3.625v-7c0-.7715-.3374-1.501-.9253-2.001Z"/><path d="m23,30.375h-10c-.3452,0-.625.2803-.625.625s.2798.625.625.625h10c.3452,0,.625-.2803.625-.625s-.2798-.625-.625-.625Z"/></svg>

<svg xmlns="http://www.w3.org/2000/svg" viewBox="0 0 36 36">
  <path d="M28.7 11.999a2.635 2.635 0 0 0-2.136-.589c-1.248.203-2.189 1.362-2.189 2.696V19a.375.375 0 0 1-.375.375h-2.375V8c0-1.999-1.626-3.625-3.625-3.625S14.375 6.001 14.375 8v7.375H12a.375.375 0 0 1-.375-.375v-3c0-1.334-.94-2.494-2.189-2.697a2.627 2.627 0 0 0-3.061 2.59V17A3.629 3.629 0 0 0 10 20.625h4.375V29a.625.625 0 0 0 1.25 0v-9a.625.625 0 0 0-.625-.625h-5A2.378 2.378 0 0 1 7.625 17v-5.107a1.377 1.377 0 0 1 1.61-1.356c.65.105 1.14.734 1.14 1.463v3c0 .896.729 1.625 1.625 1.625h3c.345 0 .625-.28.625-.625V8c0-1.31 1.065-2.375 2.375-2.375S20.375 6.69 20.375 8v12c0 .345.28.625.625.625h3c.896 0 1.625-.729 1.625-1.625v-4.894c0-.727.49-1.356 1.14-1.462A1.376 1.376 0 0 1 28.375 14v7A2.378 2.378 0 0 1 26 23.376h-5a.625.625 0 0 0-.625.625v5a.625.625 0 0 0 1.25 0v-4.375H26A3.629 3.629 0 0 0 29.625 21v-7c0-.772-.337-1.501-.925-2.001ZM23 30.375H13a.625.625 0 0 0 0 1.25h10a.625.625 0 0 0 0-1.25Z"/>
</svg>
